X: 2259
Q: "Irish Jig."
M: 6/8
L: 1/8
K: G
|:\
vG3 BAG | vd2vG BAG | vA2vB uc2ud | ecA (A2B) |\
|:\
g3 gec | g3 gdB | A2B c2d | ecA A3 |\
g3 gec | g3 gdB | AGA (B2A) | GEE E3 :|


